X:15545
T:Skudrinka
S:Hamish Small 
R:Other
O:Macedonia
M:2/4
K:Bbm
c2B2 B2fe|dcd2 e2A2|c2B2 B2fe|dcd2 e2A2|\
c2B2 B2fe|dcd2 e2A2|c2B2 B2e2|B4B4::
fgab agfe|d3A d>ecA|c2B2 BAfe|d3A decA|
fgab agfe|d3A decA|cBBA e2A2|B4B4:|
